icon/gr/document-config.svg

<svg xmlns="http://www.w3.org/2000/svg" viewBox="0 0 24 24" height="1em" width="1em">
  <path fill="none" stroke="#000" stroke-width="2" d="M4.99787498,8.99999999 L4.99787498,0.999999992 L19.4999998,0.999999992 L22.9999998,4.50000005 L23,23 L16,23 M18,1 L18,6 L23,6 M9,14 L9,11 M9,20 C10.6568542,20 12,18.6568542 12,17 C12,15.3431458 10.6568542,14 9,14 C7.34314575,14 6,15.3431458 6,17 C6,18.6568542 7.34314575,20 9,20 Z M9,23 L9,20 M12,17 L15,17 M3,17 L6,17 M5,13 L7,15 M11,19 L13,21 M13,13 L11,15 M7,19 L5,21"/>
</svg>

<svg xmlns="http://www.w3.org/2000/svg" width="24" height="24"><path fill="none" stroke="#000" stroke-width="2" d="M4.998 9V1H19.5L23 4.5V23h-7m2-22v5h5M9 14v-3m0 9a3 3 0 1 0 0-6 3 3 0 0 0 0 6Zm0 3v-3m3-3h3M3 17h3m-1-4 2 2m4 4 2 2m0-8-2 2m-4 4-2 2"/></svg>
